assets/img/braze_icons/building-04.svg

<svg fill="none" height="24" viewBox="0 0 24 24" width="24" xmlns="http://www.w3.org/2000/svg"><path clip-rule="evenodd" d="m9.16146 2h5.67704c.5272-.00002.982-.00003 1.3565.03057.3954.0323.7886.10362 1.167.29641.5645.28762 1.0234.74657 1.311 1.31105.1928.37838.2641.7716.2964 1.16695.0306.37454.0306.82938.0306 1.35648v13.83854h1c.5523 0 1 .4477 1 1s-.4477 1-1 1h-16c-.55228 0-1-.4477-1-1s.44772-1 1-1h1v-13.83854c-.00002-.52715-.00003-.98191.03057-1.35648.0323-.39535.10362-.78857.29641-1.16695.28762-.56448.74656-1.02343 1.31105-1.31105.37838-.19279.7716-.26411 1.16694-.29641.37456-.0306.82937-.03059 1.35649-.03057zm-1.16146 5c0-.55228.44772-1 1-1h6c.5523 0 1 .44772 1 1 0 .55229-.4477 1-1 1h-6c-.55228 0-1-.44771-1-1zm0 4c0-.5523.44772-1 1-1h6c.5523 0 1 .4477 1 1s-.4477 1-1 1h-6c-.55228 0-1-.4477-1-1zm1 3c-.55228 0-1 .4477-1 1s.44772 1 1 1h6c.5523 0 1-.4477 1-1s-.4477-1-1-1z" fill="#801ed7" fill-rule="evenodd"/></svg>

<svg width="24" height="24" viewBox="0 0 24 24" fill="none" xmlns="http://www.w3.org/2000/svg">
<path fill-rule="evenodd" clip-rule="evenodd" d="M9.16146 2H14.8385C15.3657 1.99998 15.8205 1.99997 16.195 2.03057C16.5904 2.06287 16.9836 2.13419 17.362 2.32698C17.9265 2.6146 18.3854 3.07355 18.673 3.63803C18.8658 4.01641 18.9371 4.40963 18.9694 4.80498C19 5.17952 19 5.63436 19 6.16146V20H20C20.5523 20 21 20.4477 21 21C21 21.5523 20.5523 22 20 22H4C3.44772 22 3 21.5523 3 21C3 20.4477 3.44772 20 4 20H5L5 6.16146C4.99998 5.63431 4.99997 5.17955 5.03057 4.80498C5.06287 4.40963 5.13419 4.01641 5.32698 3.63803C5.6146 3.07355 6.07354 2.6146 6.63803 2.32698C7.01641 2.13419 7.40963 2.06287 7.80497 2.03057C8.17953 1.99997 8.63434 1.99998 9.16146 2ZM8 7C8 6.44772 8.44772 6 9 6H15C15.5523 6 16 6.44772 16 7C16 7.55229 15.5523 8 15 8H9C8.44772 8 8 7.55229 8 7ZM8 11C8 10.4477 8.44772 10 9 10H15C15.5523 10 16 10.4477 16 11C16 11.5523 15.5523 12 15 12H9C8.44772 12 8 11.5523 8 11ZM9 14C8.44772 14 8 14.4477 8 15C8 15.5523 8.44772 16 9 16H15C15.5523 16 16 15.5523 16 15C16 14.4477 15.5523 14 15 14H9Z" fill="#801ED7"/>
</svg>
